src/actions/32/document-save.svg

<svg viewBox="0 0 32 32" xmlns="http://www.w3.org/2000/svg">
 <defs>
  <style type="text/css">.ColorScheme-Text {
        color:#2e3440;
      }</style>
 </defs>
 <path class="ColorScheme-Text" d="m4 4v24h5 14 5v-18l-6-6h-1-11-6zm1 1h5v8h11v-8h0.58594l5.4141 5.4141v16.586h-4v-8h-14v8h-4v-22zm6 0h6v7h-6v-7zm-1 15h12v7h-12v-7z" fill="currentColor"/>
</svg>

<svg xmlns="http://www.w3.org/2000/svg" viewBox="0 0 32 32">
  <defs
     id="defs3051">
    <style
       type="text/css"
       id="current-color-scheme">
      .ColorScheme-Text {
        color:#2e3440;
      }
      </style>
  </defs>
  <path
     style="fill:currentColor;fill-opacity:1;stroke:none" 
     d="M 4 4 L 4 28 L 9 28 L 23 28 L 28 28 L 28 10 L 27 9 L 23 5 L 22 4 L 21 4 L 10 4 L 4 4 z M 5 5 L 10 5 L 10 13 L 21 13 L 21 5 L 21.585938 5 L 27 10.414062 L 27 27 L 23 27 L 23 19 L 9 19 L 9 27 L 5 27 L 5 5 z M 11 5 L 17 5 L 17 12 L 11 12 L 11 5 z M 10 20 L 22 20 L 22 27 L 10 27 L 10 20 z "
     id="path60" 
     class="ColorScheme-Text"
     />
</svg>
